src/assets/icons/history.svg

<?xml version="1.0" standalone="no"?><!DOCTYPE svg PUBLIC "-//W3C//DTD SVG 1.1//EN" "http://www.w3.org/Graphics/SVG/1.1/DTD/svg11.dtd"><svg t="1537494728277" class="icon" style="" viewBox="0 0 1024 1024" version="1.1" xmlns="http://www.w3.org/2000/svg" p-id="1993" xmlns:xlink="http://www.w3.org/1999/xlink" width="128" height="128"><defs><style type="text/css"></style></defs><path d="M332 173.33333333c0-66.24-53.76-120-120-120S92 107.09333333 92 173.33333333s53.76 120 120 120S332 239.57333333 332 173.33333333zM542 233.33333333C591.68 233.33333333 632 193.01333333 632 143.33333333S591.68 53.33333333 542 53.33333333 452 93.65333333 452 143.33333333 492.32 233.33333333 542 233.33333333zM842 113.33333333C792.32 113.33333333 752 153.65333333 752 203.33333333S792.32 293.33333333 842 293.33333333 932 253.01333333 932 203.33333333 891.68 113.33333333 842 113.33333333zM535.52 294.47333333C463.28 293.33333333 381.08 304.49333333 315.26 362.81333333 249.38 421.13333333 257.6 566.81333333 350.72 605.99333333c93.18 39.12 113.7 106.8 88.74 191.04C414.5 881.27333333 457.1 953.33333333 563.6 953.33333333 747.2 953.33333333 812 781.31333333 812 588.59333333 812 379.01333333 729.62 297.41333333 535.52 294.47333333z" p-id="1994"></path></svg>

<svg class="icon" viewBox="0 0 1024 1024" xmlns="http://www.w3.org/2000/svg" width="128" height="128"><defs><style/></defs><path d="M332 173.333c0-66.24-53.76-120-120-120s-120 53.76-120 120 53.76 120 120 120 120-53.76 120-120zm210 60c49.68 0 90-40.32 90-90s-40.32-90-90-90-90 40.32-90 90 40.32 90 90 90zm300-120c-49.68 0-90 40.32-90 90s40.32 90 90 90 90-40.32 90-90-40.32-90-90-90zm-306.48 181.14c-72.24-1.14-154.44 10.02-220.26 68.34-65.88 58.32-57.66 204 35.46 243.18 93.18 39.12 113.7 106.8 88.74 191.04-24.96 84.24 17.64 156.3 124.14 156.3 183.6 0 248.4-172.02 248.4-364.74 0-209.58-82.38-291.18-276.48-294.12z"/></svg>
